packages/ffe-icons/icons/filled/sm/earbuds.svg

<svg xmlns="http://www.w3.org/2000/svg" height="20" viewBox="0 -960 960 960" width="20"><path d="M330.057-154.001q-73.826 0-124.941-51.075Q154.001-256.15 154.001-330v-361.077q0-46.23 32.961-80.576 32.962-34.346 77.807-34.346 42.846 0 77.038 29.384Q375.999-747.23 375.999-705q0 49.384-33 85.692Q310-583.001 264-586.001h-58.001V-330q0 52.167 35.43 88.084t87.616 35.917q52.186 0 88.571-35.917T454.001-330v-300q0-73.85 51.058-124.924 51.058-51.075 124.884-51.075t125.441 51.075Q806.999-703.85 806.999-630v358q0 47.384-30.461 82.692-30.461 35.307-76.461 35.307-44.999 0-79.038-32.5-34.038-32.499-34.038-77.691t32.5-77.5Q652-373.999 697-373.999h58.001V-630q0-52.167-35.93-88.084t-88.116-35.917q-52.186 0-88.571 35.917T505.999-630v300q0 73.85-51.058 124.924-51.058 51.075-124.884 51.075Z"/></svg>

<svg xmlns="http://www.w3.org/2000/svg" height="20" viewBox="0 -960 960 960" width="20"><path d="M330.06-154q-73.83 0-124.94-51.08Q154-256.15 154-330v-361.08q0-46.23 32.96-80.57Q219.92-806 264.77-806q42.84 0 77.04 29.39Q376-747.23 376-705q0 49.38-33 85.69Q310-583 264-586h-58v256q0 52.17 35.43 88.08Q276.86-206 329.05-206q52.18 0 88.57-35.92Q454-277.83 454-330v-300q0-73.85 51.06-124.92Q556.12-806 629.94-806q73.83 0 125.44 51.08Q807-703.85 807-630v358q0 47.38-30.46 82.69Q746.08-154 700.08-154q-45 0-79.04-32.5Q587-219 587-264.19t32.5-77.5Q652-374 697-374h58v-256q0-52.17-35.93-88.08Q683.14-754 630.95-754q-52.18 0-88.57 35.92Q506-682.17 506-630v300q0 73.85-51.06 124.92Q403.88-154 330.06-154Z"/></svg>
